X:1
T:As I Roved Out
M:2/4
L:1/8
K:F
 A| AA E3/2 D/2| E/2F/2E/2-D/2 C3/2 C/2| DD F3/2 G/2| A G2 A| AA D3/2 D/2|\
 E/2F/2E/2-D/2 C3/2 C/2| DD F3/2 G/2| A G2 A| Ad dc/2-d/2| ed c3/2 A/2|\
 c3/2 c/2 c3/2 C/2| EG c=B| AA D z| E/2F/2 E/2D/2 C z| cc E/2F/2 E/2D/2|\
 E2D-C| D4-| D2 z||
